X: 1
T: Fiddlin' Around
C: Bob McMurtry
B: Bob McMurtry "The Devil's Quandary" #4
R: reel
Z: 2011 John Chambers <jc:trillian.mit.edu>
M: C|
L: 1/8
K: Em
GF |\
"Em"E2EB "D"AGF2 | "Em"EDEF G3B | "C"e2eg "G"dBGE | "D"DEFG A2GF |
"Em"E2EB "D"AGFD | "Em"EDEF GFGA | "Em"Be"(#)"de "D"BAGF | "Em"G2E2 E2 :|
|: Bd |\
"Em"e2ed BABd | "Em"efed B2 BA | "G"GABd e{f}gfd | "(C)"egdB "D"d2ef |
"Em"gfeg "D"fedf | "Em"ef/e/dB "D"A2GA | "Em"BAGB "D"AGFB | "Em"G2E2 E2 :|
